src/main/resources/META-INF/pluginIcon.svg

<?xml version="1.0" encoding="UTF-8" standalone="no"?>
<!-- Generator: Adobe Illustrator 19.1.0, SVG Export Plug-In . SVG Version: 6.00 Build 0)  -->

<svg
   xmlns:dc="http://purl.org/dc/elements/1.1/"
   xmlns:cc="http://creativecommons.org/ns#"
   xmlns:rdf="http://www.w3.org/1999/02/22-rdf-syntax-ns#"
   xmlns:svg="http://www.w3.org/2000/svg"
   xmlns="http://www.w3.org/2000/svg"
   xmlns:sodipodi="http://sodipodi.sourceforge.net/DTD/sodipodi-0.dtd"
   xmlns:inkscape="http://www.inkscape.org/namespaces/inkscape"
   version="1.1"
   id="Layer_1"
   x="0px"
   y="0px"
   viewBox="0 0 40 40"
   xml:space="preserve"
   sodipodi:docname="pluginIcon.svg"
   width="40"
   height="40"
   inkscape:version="0.92.5 (2060ec1f9f, 2020-04-08)"><metadata
   id="metadata55"><rdf:RDF><cc:Work
       rdf:about=""><dc:format>image/svg+xml</dc:format><dc:type
         rdf:resource="http://purl.org/dc/dcmitype/StillImage" /><dc:title></dc:title></cc:Work></rdf:RDF></metadata><defs
   id="defs53" /><sodipodi:namedview
   pagecolor="#ffffff"
   bordercolor="#666666"
   borderopacity="1"
   objecttolerance="10"
   gridtolerance="10"
   guidetolerance="10"
   inkscape:pageopacity="0"
   inkscape:pageshadow="2"
   inkscape:window-width="1920"
   inkscape:window-height="1015"
   id="namedview51"
   showgrid="false"
   fit-margin-left="2"
   fit-margin-top="2"
   fit-margin-right="2"
   fit-margin-bottom="2"
   inkscape:zoom="3.6875"
   inkscape:cx="34"
   inkscape:cy="1.4576271"
   inkscape:window-x="0"
   inkscape:window-y="0"
   inkscape:window-maximized="1"
   inkscape:current-layer="Layer_1" />
<style
   type="text/css"
   id="style2">
	.st0{display:none;fill:#2B3544;}
	.st1{fill:#4F5D73;}
	.st2{opacity:0.2;}
	.st3{fill:#231F20;}
	.st4{fill:none;stroke:#E0995E;stroke-width:4;stroke-linecap:round;stroke-miterlimit:10;}
	.st5{opacity:0.2;fill:#231F20;}
	.st6{fill:#F5CF87;}
	.st7{fill:none;stroke:#F5CF87;stroke-width:4;stroke-miterlimit:10;}
</style>
<rect
   x="-389"
   y="-1371"
   class="st0"
   width="608"
   height="1984"
   id="rect4"
   style="display:none;fill:#2b3544" />
<circle
   class="st1"
   cx="20"
   cy="20"
   id="circle6"
   r="18"
   style="fill:#4f5d73;stroke-width:0.5625" />
<g
   class="st2"
   id="g24"
   transform="matrix(0.5625,0,0,0.5625,2,2)"
   style="opacity:0.2">
	<g
   id="g10">
		<path
   class="st3"
   d="m 32,60 c -1.1,0 -2,-0.9 -2,-2 V 10 c 0,-1.1 0.9,-2 2,-2 1.1,0 2,0.9 2,2 v 48 c 0,1.1 -0.9,2 -2,2 z"
   id="path8"
   inkscape:connector-curvature="0"
   style="fill:#231f20" />
	</g>
	<g
   id="g14">
		<path
   class="st3"
   d="M 56,36 H 8 C 6.9,36 6,35.1 6,34 6,32.9 6.9,32 8,32 h 48 c 1.1,0 2,0.9 2,2 0,1.1 -0.9,2 -2,2 z"
   id="path12"
   inkscape:connector-curvature="0"
   style="fill:#231f20" />
	</g>
	<g
   id="g18">
		<path
   class="st3"
   d="m 49,53 c -0.5,0 -1,-0.2 -1.4,-0.6 l -34,-34 c -0.8,-0.8 -0.8,-2 0,-2.8 0.8,-0.8 2,-0.8 2.8,0 l 33.9,33.9 c 0.8,0.8 0.8,2 0,2.8 C 50,52.8 49.5,53 49,53 Z"
   id="path16"
   inkscape:connector-curvature="0"
   style="fill:#231f20" />
	</g>
	<g
   id="g22">
		<path
   class="st3"
   d="m 15,53 c -0.5,0 -1,-0.2 -1.4,-0.6 -0.8,-0.8 -0.8,-2 0,-2.8 L 47.5,15.7 c 0.8,-0.8 2,-0.8 2.8,0 0.8,0.8 0.8,2 0,2.8 L 16.4,52.4 C 16.1,52.8 15.5,53 15,53 Z"
   id="path20"
   inkscape:connector-curvature="0"
   style="fill:#231f20" />
	</g>
</g>
<g
   id="g34"
   transform="matrix(0.5625,0,0,0.5625,2,2)">
	<line
   class="st4"
   x1="32"
   y1="8"
   x2="32"
   y2="56"
   id="line26"
   style="fill:none;stroke:#e0995e;stroke-width:4;stroke-linecap:round;stroke-miterlimit:10" />
	<line
   class="st4"
   x1="56"
   y1="32"
   x2="8"
   y2="32"
   id="line28"
   style="fill:none;stroke:#e0995e;stroke-width:4;stroke-linecap:round;stroke-miterlimit:10" />
	<line
   class="st4"
   x1="49"
   y1="49"
   x2="15"
   y2="15"
   id="line30"
   style="fill:none;stroke:#e0995e;stroke-width:4;stroke-linecap:round;stroke-miterlimit:10" />
	<line
   class="st4"
   x1="15"
   y1="49"
   x2="49"
   y2="15"
   id="line32"
   style="fill:none;stroke:#e0995e;stroke-width:4;stroke-linecap:round;stroke-miterlimit:10" />
</g>
<path
   class="st5"
   d="m 20,12.125 c 4.95,0 9,4.05 9,9 0,4.95 -4.05,9 -9,9 -4.95,0 -9,-4.05 -9,-9 0,-4.95 4.05,-9 9,-9 m 0,-2.25 c -6.1875,0 -11.25,5.0625 -11.25,11.25 0,6.1875 5.0625,11.25 11.25,11.25 6.1875,0 11.25,-5.0625 11.25,-11.25 0,-6.1875 -5.0625,-11.25 -11.25,-11.25 z"
   id="path36"
   inkscape:connector-curvature="0"
   style="opacity:0.2;fill:#231f20;stroke-width:0.5625" />
<g
   id="g40"
   transform="matrix(0.5625,0,0,0.5625,2,2)">
	<path
   class="st6"
   d="m 32,16 c 8.8,0 16,7.2 16,16 0,8.8 -7.2,16 -16,16 -8.8,0 -16,-7.2 -16,-16 0,-8.8 7.2,-16 16,-16 m 0,-4 C 21,12 12,21 12,32 12,43 21,52 32,52 43,52 52,43 52,32 52,21 43,12 32,12 Z"
   id="path38"
   inkscape:connector-curvature="0"
   style="fill:#f5cf87" />
</g>
<circle
   class="st1"
   cx="20"
   cy="20"
   r="3.375"
   id="circle42"
   style="fill:#4f5d73;stroke-width:0.5625" />
<g
   class="st2"
   id="g46"
   transform="matrix(0.5625,0,0,0.5625,2,2)"
   style="opacity:0.2">
	<path
   class="st3"
   d="m 32,44 c -5.5,0 -10,-4.5 -10,-10 0,-5.5 4.5,-10 10,-10 5.5,0 10,4.5 10,10 0,5.5 -4.5,10 -10,10 z m 0,-16 c -3.3,0 -6,2.7 -6,6 0,3.3 2.7,6 6,6 3.3,0 6,-2.7 6,-6 0,-3.3 -2.7,-6 -6,-6 z"
   id="path44"
   inkscape:connector-curvature="0"
   style="fill:#231f20" />
</g>
<circle
   class="st7"
   cx="20"
   cy="20"
   r="4.5"
   id="circle48"
   style="fill:none;stroke:#f5cf87;stroke-width:2.25;stroke-miterlimit:10" />
</svg>

<?xml version="1.0" encoding="UTF-8"?>
<!-- Generator: Adobe Illustrator 19.1.0, SVG Export Plug-In . SVG Version: 6.00 Build 0)  -->
<svg version="1.1" id="Layer_1" xmlns="http://www.w3.org/2000/svg" xmlns:xlink="http://www.w3.org/1999/xlink" x="0px" y="0px" viewBox="0 0 64 64" style="enable-background:new 0 0 64 64;" xml:space="preserve">
<style type="text/css">
	.st0{display:none;fill:#2B3544;}
	.st1{fill:#4F5D73;}
	.st2{opacity:0.2;}
	.st3{fill:#231F20;}
	.st4{fill:none;stroke:#E0995E;stroke-width:4;stroke-linecap:round;stroke-miterlimit:10;}
	.st5{opacity:0.2;fill:#231F20;}
	.st6{fill:#F5CF87;}
	.st7{fill:none;stroke:#F5CF87;stroke-width:4;stroke-miterlimit:10;}
</style>
<rect x="-391" y="-1345" class="st0" width="608" height="1984"/>
<circle class="st1" cx="32" cy="32" r="32"/>
<g class="st2">
	<g>
		<path class="st3" d="M32,60c-1.1,0-2-0.9-2-2V10c0-1.1,0.9-2,2-2s2,0.9,2,2v48C34,59.1,33.1,60,32,60z"/>
	</g>
	<g>
		<path class="st3" d="M56,36H8c-1.1,0-2-0.9-2-2s0.9-2,2-2h48c1.1,0,2,0.9,2,2S57.1,36,56,36z"/>
	</g>
	<g>
		<path class="st3" d="M49,53c-0.5,0-1-0.2-1.4-0.6L13.6,18.4c-0.8-0.8-0.8-2,0-2.8c0.8-0.8,2-0.8,2.8,0l33.9,33.9    c0.8,0.8,0.8,2,0,2.8C50,52.8,49.5,53,49,53z"/>
	</g>
	<g>
		<path class="st3" d="M15,53c-0.5,0-1-0.2-1.4-0.6c-0.8-0.8-0.8-2,0-2.8l33.9-33.9c0.8-0.8,2-0.8,2.8,0c0.8,0.8,0.8,2,0,2.8    L16.4,52.4C16.1,52.8,15.5,53,15,53z"/>
	</g>
</g>
<g>
	<line class="st4" x1="32" y1="8" x2="32" y2="56"/>
	<line class="st4" x1="56" y1="32" x2="8" y2="32"/>
	<line class="st4" x1="49" y1="49" x2="15" y2="15"/>
	<line class="st4" x1="15" y1="49" x2="49" y2="15"/>
</g>
<path class="st5" d="M32,18c8.8,0,16,7.2,16,16s-7.2,16-16,16s-16-7.2-16-16S23.2,18,32,18 M32,14c-11,0-20,9-20,20s9,20,20,20  s20-9,20-20S43,14,32,14L32,14z"/>
<g>
	<path class="st6" d="M32,16c8.8,0,16,7.2,16,16s-7.2,16-16,16s-16-7.2-16-16S23.2,16,32,16 M32,12c-11,0-20,9-20,20s9,20,20,20   s20-9,20-20S43,12,32,12L32,12z"/>
</g>
<circle class="st1" cx="32" cy="32" r="6"/>
<g class="st2">
	<path class="st3" d="M32,44c-5.5,0-10-4.5-10-10s4.5-10,10-10s10,4.5,10,10S37.5,44,32,44z M32,28c-3.3,0-6,2.7-6,6s2.7,6,6,6   s6-2.7,6-6S35.3,28,32,28z"/>
</g>
<circle class="st7" cx="32" cy="32" r="8"/>
</svg>
